X:118
T: Jerman Weizers Frau
N: Q0108C
O: Mitteleuropa, Deutschland (Text: Bayern, Nuernberg)
N: Geistliche Kontrafaktur? Tonangabe des Chorals zu dieser Ballade.
R: Ballade, Schein - Tod, Geburt, Grab, Auferstehen; geistlich, Choral
M: 4/4
L: 1/16
K: G
 | G8G4B4 | A4G4AGABcABc | B4
G2A2B2G2BABc | d4B4A8 | G8G8 |
G8G4B4 | A4G4AGABcABc | B4
G2A2B2A2BABc | d4B4A8 | G8G8 |
B2A2B2c2B2B2A4 | F4G4E4D4 |
D8G4G4 | G2F2G2A2B8 |
G2F2G2A2B2A2BABc | d4B4A8 | G4G12

@@@ Tune index: 1411
